public/assets/database.svg

<?xml version="1.0" standalone="no"?>
<!DOCTYPE svg PUBLIC "-//W3C//DTD SVG 1.0//EN" "http://www.w3.org/TR/2001/REC-SVG-20010904/DTD/svg10.dtd">
<svg xmlns="http://www.w3.org/2000/svg" xmlns:xlink="http://www.w3.org/1999/xlink" id="body_1" width="51" height="38">

<g transform="matrix(1.5108142 0 0 1.5108142 6.5000014 -0)">
	<g>
        <path d="M12.575 13.713C 7.85 13.713 3.8949995 12.328 2.8140001 10.453C 2.623 10.785 2.51 11.127 2.51 11.48L2.51 11.48L2.51 14.542C 2.51 16.909 7.016 18.825 12.575 18.825C 18.133999 18.825 22.640999 16.909 22.640999 14.542001L22.640999 14.542001L22.640999 11.48C 22.640999 11.125999 22.527998 10.785 22.335999 10.452999C 21.256 12.328 17.302 13.713 12.575 13.713z" stroke="none" fill="#030104" fill-rule="nonzero" />
        <path d="M12.575 20.039C 7.85 20.039 3.8949995 18.647999 2.8140001 16.781C 2.6230001 17.109 2.5100002 17.449 2.5100002 17.805L2.5100002 17.805L2.5100002 20.869C 2.5100002 23.234 7.0160003 25.152 12.575 25.152C 18.133999 25.152 22.640999 23.234001 22.640999 20.869L22.640999 20.869L22.640999 17.805C 22.640999 17.45 22.527998 17.11 22.335999 16.782C 21.256 18.648 17.302 20.039 12.575 20.039z" stroke="none" fill="#030104" fill-rule="nonzero" />
        <path d="M22.365 4.334C 22.17 6.066 17.869 7.453 12.576 7.453C 7.2850003 7.453 2.9820004 6.066 2.7870007 4.334C 2.615 4.65 2.51 4.977 2.51 5.314L2.51 5.314L2.51 8.375C 2.51 10.7439995 7.016 12.658 12.575 12.658C 18.133999 12.658 22.640999 10.7439995 22.640999 8.375L22.640999 8.375L22.640999 5.314C 22.642 4.977 22.538 4.65 22.365 4.334z" stroke="none" fill="#030104" fill-rule="nonzero" />
        <path d="M2.769 3.241C 2.769 1.451045 7.1597433 0 12.576 0C 17.992256 0 22.383 1.451045 22.383 3.241C 22.383 5.030955 17.992256 6.482 12.576 6.482C 7.1597433 6.482 2.769 5.030955 2.769 3.241" stroke="none" fill="#030104" fill-rule="nonzero" />
	</g>
	<g>
	</g>
	<g>
	</g>
	<g>
	</g>
	<g>
	</g>
	<g>
	</g>
	<g>
	</g>
	<g>
	</g>
	<g>
	</g>
	<g>
	</g>
	<g>
	</g>
	<g>
	</g>
	<g>
	</g>
	<g>
	</g>
	<g>
	</g>
	<g>
	</g>
</g>
</svg>

<?xml version="1.0" encoding="iso-8859-1"?>
<!-- Generator: Adobe Illustrator 18.1.1, SVG Export Plug-In . SVG Version: 6.00 Build 0)  -->
<svg version="1.1" id="Capa_1" xmlns="http://www.w3.org/2000/svg" xmlns:xlink="http://www.w3.org/1999/xlink" x="0px" y="0px"
	 viewBox="0 0 25.152 25.152" style="enable-background:new 0 0 25.152 25.152;" xml:space="preserve">
<g>
	<path style="fill:#030104;" d="M12.575,13.713c-4.725,0-8.68-1.385-9.761-3.26C2.623,10.785,2.51,11.127,2.51,11.48v3.062
		c0,2.367,4.506,4.283,10.065,4.283s10.066-1.916,10.066-4.283V11.48c0-0.354-0.113-0.695-0.305-1.027
		C21.256,12.328,17.302,13.713,12.575,13.713z"/>
	<path style="fill:#030104;" d="M12.575,20.039c-4.725,0-8.68-1.391-9.761-3.258c-0.191,0.328-0.304,0.668-0.304,1.024v3.064
		c0,2.365,4.506,4.283,10.065,4.283s10.066-1.918,10.066-4.283v-3.064c0-0.355-0.113-0.695-0.305-1.023
		C21.256,18.648,17.302,20.039,12.575,20.039z"/>
	<path style="fill:#030104;" d="M22.365,4.334c-0.195,1.732-4.496,3.119-9.789,3.119c-5.291,0-9.594-1.387-9.789-3.119
		C2.615,4.65,2.51,4.977,2.51,5.314v3.061c0,2.369,4.506,4.283,10.065,4.283s10.066-1.914,10.066-4.283V5.314
		C22.642,4.977,22.538,4.65,22.365,4.334z"/>
	<ellipse style="fill:#030104;" cx="12.576" cy="3.241" rx="9.807" ry="3.241"/>
</g>
<g>
</g>
<g>
</g>
<g>
</g>
<g>
</g>
<g>
</g>
<g>
</g>
<g>
</g>
<g>
</g>
<g>
</g>
<g>
</g>
<g>
</g>
<g>
</g>
<g>
</g>
<g>
</g>
<g>
</g>
</svg>
